static/logos/jotform-wordmark-color.svg

<svg width="100" height="18" viewBox="0 0 100 18" fill="none" xmlns="http://www.w3.org/2000/svg">
<g clip-path="url(#clip0_1_2259)">
<path fill-rule="evenodd" clip-rule="evenodd" d="M69.9646 13.8065C69.6595 13.8103 69.3567 13.7535 69.0736 13.6394C68.7908 13.5253 68.5333 13.3561 68.3161 13.1417C67.8802 12.7057 67.5859 12.0436 67.5859 11.1498C67.5859 10.2452 67.8802 9.58584 68.3161 9.14987C68.5341 8.93753 68.7922 8.77044 69.075 8.65821C69.3581 8.54597 69.6603 8.49082 69.9646 8.49592C70.5859 8.49592 71.1772 8.7139 71.6131 9.14987C72.0491 9.58584 72.3407 10.2452 72.3407 11.1498C72.3407 12.0545 72.0491 12.7139 71.6131 13.1498C71.3952 13.3622 71.1371 13.5293 70.8543 13.6415C70.5712 13.7537 70.269 13.8089 69.9646 13.8038V13.8065ZM69.9646 5.60491C66.8093 5.60491 64.4197 7.92641 64.4197 11.1498C64.4197 14.3515 66.8093 16.6948 69.9646 16.6948C73.12 16.6948 75.5096 14.3515 75.5096 11.1498C75.5096 7.92641 73.12 5.60491 69.9646 5.60491ZM43.7303 13.8828C43.4251 13.8866 43.1224 13.8298 42.8393 13.7157C42.5565 13.6016 42.299 13.4324 42.0818 13.218C41.6458 12.782 41.3543 12.1226 41.3543 11.2289C41.3543 10.3242 41.6486 9.6621 42.0818 9.22886C42.3001 9.01573 42.5584 8.84796 42.8418 8.73524C43.1251 8.62254 43.4281 8.56712 43.733 8.57218C44.3543 8.57218 44.9456 8.79292 45.3815 9.22616C45.8175 9.66213 46.1091 10.3243 46.1091 11.2262C46.1091 12.1308 45.8148 12.7929 45.3815 13.2262C45.1633 13.4393 44.905 13.6071 44.6216 13.7198C44.3382 13.8325 44.0352 13.8879 43.7303 13.8828ZM43.7303 5.6812C40.5777 5.6812 38.1881 8.00545 38.1881 11.2262C38.1881 14.4305 40.5777 16.7711 43.7303 16.7711C46.8856 16.7711 49.2753 14.4278 49.2753 11.2262C49.2753 8.00545 46.8856 5.68393 43.733 5.68393L43.7303 5.6812ZM84.1309 16.6594H87.278V10.4087C87.278 9.89101 87.4415 9.44142 87.7249 9.12535C87.8824 8.95436 88.0747 8.81954 88.2894 8.73017C88.5039 8.64079 88.7352 8.599 88.9674 8.60763C89.5341 8.60763 89.921 8.79834 90.169 9.08717C90.4224 9.38145 90.5505 9.80927 90.5505 10.327V16.6594H93.6785V10.4087C93.6785 9.90464 93.842 9.45502 94.1254 9.13077C94.2785 8.95995 94.4671 8.82461 94.678 8.73423C94.8889 8.64387 95.1167 8.60066 95.3461 8.60763C95.9265 8.60763 96.3107 8.79834 96.5559 9.08717C96.8066 9.38145 96.9319 9.80927 96.9319 10.327V16.6594H99.9973V9.76567C99.9973 8.35695 99.5341 7.32971 98.8011 6.65941C98.0736 5.99183 97.1036 5.69483 96.1309 5.69483C95.436 5.69483 94.8012 5.81469 94.2317 6.10079C93.7439 6.34603 93.3161 6.70573 92.9401 7.20709C92.3325 6.21799 91.2235 5.69483 89.9156 5.69483C88.9565 5.69483 87.8529 6.0763 87.1554 6.81199V5.95096H84.1309V16.6594ZM82.9456 5.95913V9.16619L82.7003 9.11714C82.4088 9.05992 82.1554 9.03812 81.921 9.03812C81.2535 9.03812 80.6595 9.20161 80.2344 9.59943C79.8121 9.99453 79.5205 10.6512 79.5205 11.7085V16.6594H76.3815V5.95096H79.4388V6.98635C80.1935 6.07627 81.3679 5.89643 82.1063 5.89643C82.3407 5.89643 82.5559 5.92096 82.7603 5.94003L82.9456 5.95913ZM26.3516 11.4986H29.4197L29.4551 11.5341C29.4769 11.5559 29.4933 11.5886 29.496 11.624C29.5093 11.912 29.5796 12.1945 29.7031 12.4551C29.8268 12.7156 30.0009 12.949 30.2153 13.1417C30.6191 13.4713 31.1276 13.6453 31.6486 13.6321C31.9371 13.6418 32.2243 13.5886 32.49 13.4761C32.7559 13.3636 32.9941 13.1947 33.1881 12.9809C33.5652 12.5235 33.7619 11.944 33.7412 11.3515V2.38146H37.06V11.4441C37.06 14.3461 34.8393 16.7711 31.6704 16.7711C30.09 16.7711 28.7603 16.2452 27.8284 15.3324C26.9183 14.4414 26.3761 13.1689 26.3516 11.6213V11.4986ZM63.9755 3.83379L64.1499 3.88556V1.45503L64.0682 1.41961C63.8922 1.34958 63.7082 1.30109 63.5205 1.27519C63.2889 1.23705 63.0164 1.21252 62.7385 1.21252C61.6567 1.21252 60.4415 1.5722 59.8121 2.21797C59.1826 2.86104 58.8338 3.7793 58.8338 4.88011V5.39238H57.2535V8.18257H58.8338V16.6594H62.0082V8.18257H64.1499V5.39238H62.0082V4.91826C62.0082 4.42507 62.1799 4.13897 62.4006 3.97548C62.6363 3.81507 62.917 3.73393 63.2017 3.74387C63.6104 3.74387 63.8502 3.79837 63.9755 3.83379ZM56.1172 14.1553L56.2807 14.1035V16.5422L56.2044 16.5804C56.09 16.6349 55.9047 16.6867 55.6894 16.7248C55.4715 16.7602 55.218 16.7847 54.9537 16.7847C53.9401 16.7847 52.8012 16.4251 52.2099 15.7766C51.6186 15.1308 51.2916 14.2098 51.2916 13.1062V8.18257H49.8066V5.406H51.2916V2.39781H54.2698V5.40872H56.2807V8.18799H54.2698V13.0681C54.2698 13.564 54.4333 13.8501 54.6404 14.0163C54.8529 14.188 55.1336 14.248 55.3924 14.248C55.7766 14.248 56.0001 14.1934 56.1172 14.158V14.1553Z" fill="#0A1551"/>
<path d="M4.47684 17.0927C4.81471 17.4196 4.57493 17.9837 4.09537 17.9837H1.07629C0.794916 17.9873 0.52358 17.8792 0.321809 17.6831C0.120038 17.4869 0.00430572 17.2187 0 16.9373V14.0164C0 13.5477 0.580382 13.3161 0.920981 13.6458L4.47684 17.0927Z" fill="#0A1551"/>
<path d="M9.19158 17.3188C8.97987 17.1086 8.81183 16.8585 8.69714 16.5831C8.58248 16.3076 8.52344 16.0123 8.52344 15.7139C8.52344 15.4155 8.58248 15.1201 8.69714 14.8447C8.81183 14.5692 8.97987 14.3192 9.19158 14.109L12.4123 10.9101C12.842 10.4838 13.4228 10.2446 14.0281 10.2446C14.6334 10.2446 15.2142 10.4838 15.6439 10.9101C15.8556 11.1203 16.0237 11.3703 16.1383 11.6458C16.253 11.9212 16.312 12.2166 16.312 12.515C16.312 12.8133 16.253 13.1087 16.1383 13.3842C16.0237 13.6596 15.8556 13.9097 15.6439 14.1199L12.4232 17.3188C11.9935 17.7451 11.4127 17.9843 10.8074 17.9843C10.2021 17.9843 9.62131 17.7451 9.19158 17.3188Z" fill="#FFB629"/>
<path d="M0.683772 9.27792C0.472044 9.0677 0.304006 8.81767 0.189333 8.54225C0.0746613 8.2668 0.015625 7.97138 0.015625 7.67301C0.015625 7.37467 0.0746613 7.07925 0.189333 6.8038C0.304006 6.52835 0.472044 6.27833 0.683772 6.06811L6.1034 0.681194C6.5331 0.254894 7.11389 0.015686 7.71921 0.015686C8.32449 0.015686 8.90528 0.254894 9.33501 0.681194C9.54673 0.891409 9.71477 1.14144 9.82943 1.41688C9.94411 1.69233 10.0032 1.98774 10.0032 2.2861C10.0032 2.58446 9.94411 2.87988 9.82943 3.15533C9.71477 3.43075 9.54673 3.68078 9.33501 3.891L3.91267 9.27792C3.48305 9.70339 2.90286 9.94209 2.29821 9.94209C1.69358 9.94209 1.11338 9.70339 0.683772 9.27792Z" fill="#0099FF"/>
<path d="M5.11346 13.1199C4.90172 12.9097 4.73368 12.6597 4.61902 12.3842C4.50433 12.1088 4.44531 11.8133 4.44531 11.515C4.44531 11.2166 4.50433 10.9212 4.61902 10.6458C4.73368 10.3703 4.90172 10.1203 5.11346 9.91009L12.435 2.63487C12.8647 2.20857 13.4455 1.96936 14.0508 1.96936C14.6561 1.96936 15.2369 2.20857 15.6666 2.63487C15.8783 2.84507 16.0463 3.09513 16.161 3.37055C16.2757 3.646 16.3347 3.94142 16.3347 4.23979C16.3347 4.53812 16.2757 4.83355 16.161 5.109C16.0463 5.38445 15.8783 5.63447 15.6666 5.84469L8.34507 13.1199C7.91534 13.5462 7.33455 13.7854 6.72926 13.7854C6.12395 13.7854 5.54316 13.5462 5.11346 13.1199Z" fill="#FF6100"/>
</g>
<defs>
<clipPath id="clip0_1_2259">
<rect width="100" height="17.9837" fill="white"/>
</clipPath>
</defs>
</svg>

<svg xmlns="http://www.w3.org/2000/svg" width="355.556" height="64" fill="none" viewBox="0 0 100 18"><g clip-path="url(#a)"><path fill="#0A1551" fill-rule="evenodd" d="M69.965 13.806a2.307 2.307 0 0 1-1.649-.664c-.436-.436-.73-1.098-.73-1.992 0-.905.294-1.564.73-2a2.308 2.308 0 0 1 1.649-.654c.62 0 1.212.218 1.648.654.436.436.728 1.095.728 2s-.292 1.564-.728 2a2.305 2.305 0 0 1-1.648.654v.002Zm0-8.201c-3.156 0-5.545 2.321-5.545 5.545 0 3.201 2.39 5.545 5.545 5.545s5.545-2.344 5.545-5.545c0-3.224-2.39-5.545-5.545-5.545ZM43.73 13.883a2.306 2.306 0 0 1-1.648-.665c-.436-.436-.728-1.095-.728-1.99 0-.904.295-1.566.728-2a2.31 2.31 0 0 1 1.651-.656c.621 0 1.213.22 1.649.654.436.436.727 1.098.727 2 0 .905-.294 1.567-.727 2a2.309 2.309 0 0 1-1.652.657Zm0-8.202c-3.152 0-5.542 2.324-5.542 5.545 0 3.204 2.39 5.545 5.542 5.545 3.156 0 5.545-2.343 5.545-5.545 0-3.22-2.39-5.542-5.542-5.542l-.003-.003Zm40.4 10.978h3.148v-6.25c0-.518.163-.968.447-1.284a1.607 1.607 0 0 1 1.242-.517c.567 0 .954.19 1.202.48.253.293.382.721.382 1.239v6.332h3.127v-6.25c0-.504.164-.954.447-1.278a1.575 1.575 0 0 1 1.221-.523c.58 0 .965.19 1.21.48.25.293.376.721.376 1.239v6.332h3.065V9.766c0-1.41-.463-2.436-1.196-3.107-.727-.667-1.697-.964-2.67-.964-.695 0-1.33.12-1.9.406a3.653 3.653 0 0 0-1.29 1.106c-.609-.989-1.718-1.512-3.025-1.512-.96 0-2.063.381-2.76 1.117v-.861H84.13v10.708Zm-1.184-10.7v3.207l-.246-.049a3.992 3.992 0 0 0-.779-.079c-.668 0-1.262.164-1.687.561-.422.396-.713 1.052-.713 2.11v4.95h-3.14V5.951h3.058v1.035c.755-.91 1.929-1.09 2.667-1.09.235 0 .45.025.654.044l.186.02ZM26.352 11.5h3.068l.035.035a.145.145 0 0 1 .041.09 2.175 2.175 0 0 0 .72 1.518c.403.33.912.503 1.433.49a1.987 1.987 0 0 0 1.54-.651 2.428 2.428 0 0 0 .552-1.63v-8.97h3.319v9.063c0 2.902-2.22 5.327-5.39 5.327-1.58 0-2.91-.526-3.842-1.439-.91-.89-1.452-2.163-1.476-3.71v-.123Zm37.623-7.665.175.052V1.455l-.082-.035a2.351 2.351 0 0 0-.547-.145 4.917 4.917 0 0 0-.782-.062c-1.082 0-2.297.36-2.927 1.005-.63.643-.978 1.561-.978 2.662v.512h-1.58v2.79h1.58v8.477h3.174V8.183h2.142v-2.79h-2.142v-.475c0-.493.172-.779.393-.943a1.34 1.34 0 0 1 .8-.231c.41 0 .65.054.774.09Zm-7.858 10.321.164-.051v2.438l-.077.038c-.114.055-.3.107-.515.145a4.65 4.65 0 0 1-.735.06c-1.014 0-2.153-.36-2.744-1.008-.591-.646-.918-1.567-.918-2.67V8.182h-1.485V5.406h1.485V2.398h2.978v3.01h2.01v2.78h-2.01v4.88c0 .496.163.782.37.948.213.172.494.232.752.232.385 0 .608-.055.725-.09v-.003Z" clip-rule="evenodd"/><path fill="#0A1551" d="M4.477 17.093c.338.327.098.89-.382.89H1.076A1.063 1.063 0 0 1 0 16.938v-2.92c0-.47.58-.7.921-.371l3.556 3.447Z"/><path fill="#FFB629" d="M9.192 17.319a2.263 2.263 0 0 1 0-3.21l3.22-3.199a2.294 2.294 0 0 1 3.232 0 2.26 2.26 0 0 1 0 3.21l-3.22 3.199a2.294 2.294 0 0 1-3.232 0Z"/><path fill="#09F" d="M.684 9.278a2.262 2.262 0 0 1 0-3.21L6.104.681a2.294 2.294 0 0 1 3.231 0 2.261 2.261 0 0 1 0 3.21L3.913 9.278a2.294 2.294 0 0 1-3.23 0Z"/><path fill="#FF6100" d="M5.113 13.12a2.26 2.26 0 0 1 0-3.21l7.322-7.275a2.294 2.294 0 0 1 3.232 0 2.262 2.262 0 0 1 0 3.21L8.345 13.12a2.294 2.294 0 0 1-3.232 0Z"/></g><defs><clipPath id="a"><path fill="#fff" d="M0 0h100v17.984H0z"/></clipPath></defs></svg>
